!!!OTL: Die Koenigskinder.
!!!OTL-incipit: Ack Elschen Liber Bulle Meinn
!!!ODT: 1613
!!!ARE: Europa, Mitteleuropa, Deutschland
!!!YOR: 1, S. 219
!!    1613 Handschrift
!!!SCT: Q0020L
!!!YEM: Copyright 1995, estate of Helmut Schaffrath.
**kern	**text
*ICvox	*
*M3/8	*
*k[f#]	*
*G:	*
!LO:TX:a:t=Nauclerus (1613)	!
{8dd	Ack
=1	=1
4dd	Elf-
8cc	-chen
=2	=2
4b	Li-
8a	-ber
=3	=3
8.b	Bu-
16a	.
8g	.
=4	=4
4a	.
8b	-lle
=5	=5
4cc}	Meinn
{8cc	.
=6	=6
4b	.
8dd	.
=7	=7
8.dd	.
16cc	.
8b	.
=8	=8
4a	.
8r	.
=9	=9
8a	.
8r}	.
{8dd	.
=10	=10
4dd	.
8cc	.
=11	=11
4b	.
8a	.
=12	=12
8.b	.
16a	.
8g	.
=13	=13
4a	.
8b	.
=14	=14
4cc}	.
{8cc	.
=15	=15
4b	.
8dd	.
=16	=16
8.dd	.
16cc	.
8b	.
=17	=17
4a	.
8r	.
=18	=18
8a	.
8r}	.
{8a	.
=19	=19
4a	.
8a	.
=20	=20
4a	.
8a	.
=21	=21
4a	.
8a	.
=22	=22
4a}	.
{8a	.
=23	=23
8.b	.
16a	.
8g	.
=24	=24
8.a	.
16g	.
8a	.
=25	=25
4g	.
8g	.
=26	=26
4g}	.
==	==
!!!AGN: Ballade, Liebe, Trennung, Tod
!! Unklare Notation bei der Wiederholung (korrigiert !)
!!    Die"Elslein"-Melodie wird in direkten Zusammenhang zur Balladengruppe
!!    gestellt.
!!!ONB: ESAC (Essen Associative Code) Database: BALLADE
!!!AMT: simple triple
!!!AIN: vox
!!!EED: Helmut Schaffrath
!!!EEV: 1.0
!!!source: Deutsche Volkslieder mit ihren Melodien. Balladen. Herausgegeben vom Deutschen Volksliedarchiv. Erster Band Balladen. Berlin und Leipzig 1935.
!!!page: 219
!!!ENC: Anna Maria Matuszewska
!!!EEV: 2025/02/14
*-	*-
